img/logo-github-8.svg

<svg fill="none" height="25" viewBox="0 0 24 25" width="24" xmlns="http://www.w3.org/2000/svg" xmlns:xlink="http://www.w3.org/1999/xlink"><clipPath id="a"><path d="m0 .5h24v24h-24z"/></clipPath><g clip-path="url(#a)"><path clip-rule="evenodd" d="m11.9633.49968c-6.6055 0-11.9633 5.3578-11.9633 11.96332 0 5.2844 3.44954 9.7614 8.14679 11.3761.58715.0734.80734-.2935.80734-.5871s0-1.0275 0-2.0551c-3.30275.734-4.0367-1.6147-4.0367-1.6147-.51376-1.3944-1.3211-1.7614-1.3211-1.7614-1.10092-.734.07339-.734.07339-.734 1.17432.0734 1.83487 1.2477 1.83487 1.2477 1.10091 1.8349 2.78899 1.3211 3.44954 1.0276.07339-.8074.44037-1.3211.73394-1.6147-2.6422-.2936-5.43119-1.3211-5.43119-5.945 0-1.3211.44037-2.34859 1.24771-3.22933-.0734-.22018-.51376-1.46789.14679-3.08256 0 0 1.02752-.29358 3.30275 1.2477.95413-.29358 1.98167-.36697 3.00917-.36697s2.055.14679 3.0092.36697c2.2752-1.54128 3.3027-1.2477 3.3027-1.2477.6606 1.61467.2202 2.86238.1468 3.15596.734.80734 1.2477 1.90823 1.2477 3.22933 0 4.6239-2.789 5.578-5.4312 5.8716.4404.367.8074 1.1009.8074 2.2018v3.3028c0 .2936.2202.6605.8073.5871 4.7707-1.6147 8.1468-6.0917 8.1468-11.3761-.0734-6.60552-5.4312-11.96332-12.0367-11.96332z" fill="#000" fill-rule="evenodd"/></g></svg>

<svg width="24" height="25" viewBox="0 0 24 25" fill="none" xmlns="http://www.w3.org/2000/svg">
<g clip-path="url(#clip0_3522_2670)">
<path fill-rule="evenodd" clip-rule="evenodd" d="M11.9633 0.49968C5.3578 0.49968 0 5.85748 0 12.463C0 17.7474 3.44954 22.2244 8.14679 23.8391C8.73394 23.9125 8.95413 23.5456 8.95413 23.252C8.95413 22.9584 8.95413 22.2245 8.95413 21.1969C5.65138 21.9309 4.91743 19.5822 4.91743 19.5822C4.40367 18.1878 3.59633 17.8208 3.59633 17.8208C2.49541 17.0868 3.66972 17.0868 3.66972 17.0868C4.84404 17.1602 5.50459 18.3345 5.50459 18.3345C6.6055 20.1694 8.29358 19.6556 8.95413 19.3621C9.02752 18.5547 9.3945 18.041 9.68807 17.7474C7.04587 17.4538 4.25688 16.4263 4.25688 11.8024C4.25688 10.4813 4.69725 9.45381 5.50459 8.57307C5.43119 8.35289 4.99083 7.10518 5.65138 5.49051C5.65138 5.49051 6.6789 5.19693 8.95413 6.73821C9.90826 6.44463 10.9358 6.37124 11.9633 6.37124C12.9908 6.37124 14.0183 6.51803 14.9725 6.73821C17.2477 5.19693 18.2752 5.49051 18.2752 5.49051C18.9358 7.10518 18.4954 8.35289 18.422 8.64647C19.156 9.45381 19.6697 10.5547 19.6697 11.8758C19.6697 16.4997 16.8807 17.4538 14.2385 17.7474C14.6789 18.1144 15.0459 18.8483 15.0459 19.9492C15.0459 21.5639 15.0459 22.8116 15.0459 23.252C15.0459 23.5456 15.2661 23.9125 15.8532 23.8391C20.6239 22.2244 24 17.7474 24 12.463C23.9266 5.85748 18.5688 0.49968 11.9633 0.49968Z" fill="black"/>
</g>
<defs>
<clipPath id="clip0_3522_2670">
<rect width="24" height="24" fill="white" transform="translate(0 0.5)"/>
</clipPath>
</defs>
</svg>
